X: '1'
T:Chambre Rousse
C:Laurence Beaudry
N:© Laurence Beaudry, Reproduced with permission
Z:robin.beech@mcgill.ca
R:jig
M:6/8
L:1/8
K:Emin
|: EB,E GFE | FB,F AGF | GAB AGF | G[EB,][EB,] [E2C2][EB,] |
EB,E GFE | FB,F AGF | GAB AGF | G[EB,][EB,] [E3B,3] ::
CEG B,DG | FEF GBG | CEG B,GB, | A,FG E2G |
B,EG CEG | DFA GBd | ecA dfg | AGF G3 ::
Ace ecA | GBe eBG | FAd fga | gab dBG |
ceg gec | Bdg dBg | fga dba | gdB GBG :|
dBG DGD | BGD B,DB, | GDB, [D3G,3] |]
